!!!!SEGMENT: chor252.krn
!!!COM: Bach, Johann Sebastian
!!!CDT: 1685/02/21/-1750/07/28/
!!!OTL@@DE: Jesu, nun sei gepreiset
!!!SCT: BWV 362
!!!PC#: 252
!!!AGN: chorale
**kern	**kern	**kern	**kern
*ICvox	*ICvox	*ICvox	*ICvox
*Ibass	*Itenor	*Ialto	*Isoprn
*I"Bass	*I"Tenor	*I"Alto	*I"Soprano
*clefF4	*clefGv2	*clefG2	*clefG2
*k[b-e-]	*k[b-e-]	*k[b-e-]	*k[b-e-]
*B-:	*B-:	*B-:	*B-:
*M3/4	*M3/4	*M3/4	*M3/4
*met(c)	*met(c)	*met(c)	*met(c)
*MM100	*MM100	*MM100	*MM100
4G	4d	4g	4bn
=24	=24	=24	=24
4A-	4c	4g	2cc
2An	4f	2f	.
.	4e-	.	4cc
=25	=25	=25	=25
4B-	8dL	8fL	2dd
.	8e-J	8gJ	.
2Bn	4f	4a-	.
.	8e-L	4g	4dd
.	8dJ	.	.
=26	=26	=26	=26
4c	4c	2g	2.ee-
4G	4B-	.	.
4An	4c	4f	.
=27	=27	=27	=27
8B-L	2B-	2f	2dd
8cJ	.	.	.
8B-L	.	.	.
8AJ	.	.	.
8GL	4B-	4g	4dd
8FJ	.	.	.
=28	=28	=28	=28
8E-L	4c	2g	2cc
8G	.	.	.
8F	4d	.	.
8E-J	.	.	.
8DL	4e-	4g	4b-
8CJ	.	.	.
=29	=29	=29	=29
4F	4d	4f	4b-
4E-	4e-	4g	8ddL
.	.	.	8ccJ
4F	4c	4f	8b-L
.	.	.	8aJ
=30	=30	=30	=30
2.BB-;	2.d;	2.f;	2.b-;
==	==	==	==
*-	*-	*-	*-